X:1
T:Title
%%score { ( 1 3 ) | 2 }
L:1/8
M:4/4
K:G
V:1 treble nm="Grand Piano"
V:3 treble 
V:2 bass 
V:1
 z4 z2[Q:1/4=100] DD | G2 GG B2 BA | G2 EG D2 DD | [DG]2 [DG][DA] [DB]2 [DA][DG] | A6 Bc | %5
 dddB dBGA | BBBG BGDD | z4 z2 A2 |[M:3/4] [B,DG]6 |[M:1/4] [DB][DB] | %10
[M:4/4] [Ec][Ec][Ec][Ec] [Ec]2 [EG][^DA] | [DB][DB][DB][DB] [DB]2 B2 | A2 A2 B2 [G^c]2 | %13
 [Fd]6 [Fd][Fc] | BBBd G2 BA | GGGB [B,D]2 DD | E2 [Ec][Ec] B2 AA |[M:3/4] [B,DG]6 |] %18
V:2
 z4 z2 [G,B,][G,B,] | [G,B,D]2 [G,B,D][G,B,D][K:treble] [G,DG]2 [G,DG][K:bass][G,CD] | %2
 [G,B,D]2 [C,G,C][C,E,C] [G,B,]2 [D,F,][C,F,] | [B,,G,]2 [B,,G,][A,,F,] [G,,G,]2 [A,,F,][B,,G,] | %4
 [D,F,D]6[K:treble] [G,D][G,A,D] | [G,B,D][G,B,G][G,B,G][G,DG] [G,B,G][G,DG][G,B,D][G,CD] | %6
 [G,DG][G,DG][G,DG][G,B,D] [G,DG][K:bass][G,B,D][B,,G,][B,,G,] | %7
 [C,G,C]2 [C,G,]2 [D,G,D]2 .[D,F,D]2 |[M:3/4] G,,6 |[M:1/4] G,G, | %10
[M:4/4] [C,G,][C,G,][C,G,][C,G,] [C,G,]2 [C,G,][C,G,] | %11
 [G,,G,][G,,G,][G,,G,][G,,G,] [G,,G,]2 [G,D]2 | [D,F,D]2 [D,F,D]2 [G,D]2 [E,A,]2 | %13
 [D,A,]6 [D,A,][D,D] | [G,DG][G,DG][G,DG][G,B,G] [G,B,D]2[K:bass] [G,D][G,CD] | %15
 [G,B,D][G,B,D][G,B,D][G,D] [G,,G,]2 [B,,G,][B,,G,] | %16
 [C,G,C]2 [C,G,][C,G,] [D,G,D]2 [D,F,D][D,CD] |[M:3/4] G,,6 |] %18
V:3
 x8 | x8 | x8 | x8 | x8 | x8 | x8 | E2 [Ec]2 B2 z C |[M:3/4] x6 |[M:1/4] x2 |[M:4/4] x8 | x8 | x8 | %13
 x8 | x8 | x8 | x8 |[M:3/4] x6 |] %18

